libs/ui/packages/crypto-icons/src/svg/EWT.svg

<svg width="24" height="24" stroke-miterlimit="10" version="1.1" viewBox="0 0 24 24" xml:space="preserve" xmlns="http://www.w3.org/2000/svg" xmlns:xlink="http://www.w3.org/1999/xlink">
<path d="M10.3125 4.125C6.0231 4.125 4.125 6.0231 4.125 10.3125L4.125 13.6875C4.125 17.9769 6.0231 19.875 10.3125 19.875L13.6875 19.875C17.9785 19.875 19.875 17.9769 19.875 13.6875L19.875 10.3125C19.875 6.0231 17.9785 4.125 13.6875 4.125L10.3125 4.125ZM15.7812 7.6875C15.8191 7.67018 15.877 7.68914 15.9062 7.71875C16.07 7.88586 16.212 8.05669 16.3438 8.25C16.9803 9.23039 17.302 10.3938 17.2812 11.5625C17.3029 12.7309 16.9792 13.863 16.3438 14.8438C15.7013 15.7807 14.8198 16.3125 13.875 16.3125C12.9302 16.3125 12.0815 15.776 11.4375 14.8438C10.8007 13.8635 10.479 12.7313 10.5 11.5625C10.5 10.4177 11.156 9.5 12 9.5C12.844 9.5 13.5 10.413 13.5 11.5625C13.5113 12.5635 13.2755 13.5499 12.8125 14.4375C12.7998 14.4612 12.7757 14.4923 12.75 14.5C12.7243 14.5077 12.7111 14.4816 12.6875 14.4688C12.6775 14.4628 12.664 14.4774 12.6562 14.4688C12.5787 14.3804 12.5036 14.2848 12.4375 14.1875C12.3603 14.0758 12.2821 13.9638 12.2188 13.8438C12.2062 13.8168 12.2062 13.777 12.2188 13.75C12.5159 13.0616 12.6627 12.3122 12.6562 11.5625C12.6562 10.994 12.3779 10.375 12 10.375C11.6221 10.375 11.3437 10.9909 11.3438 11.5625C11.3227 12.5612 11.5836 13.5355 12.125 14.375C12.5974 15.0742 13.2528 15.4687 13.9062 15.4688C14.5597 15.4687 15.1775 15.0742 15.6562 14.375C16.1959 13.5348 16.4567 12.5609 16.4375 11.5625C16.4588 10.5633 16.1978 9.58993 15.6562 8.75C15.5094 8.53287 15.3221 8.32908 15.125 8.15625C15.1041 8.14035 15.097 8.11983 15.0938 8.09375C15.0905 8.06767 15.1086 8.05181 15.125 8.03125C15.1356 8.01732 15.1401 8.0067 15.1562 8L15.7812 7.6875ZM7.40625 11.4688C7.43002 11.4576 7.47541 11.4596 7.5 11.4688C7.52459 11.4779 7.52061 11.5073 7.53125 11.5312C7.537 11.5441 7.56307 11.5484 7.5625 11.5625C7.54174 12.5614 7.80361 13.5345 8.34375 14.375C8.83032 15.0726 9.47466 15.4687 10.125 15.4688C10.4784 15.463 10.8021 15.3559 11.0938 15.1562C11.1374 15.1267 11.1878 15.1448 11.2188 15.1875C11.3435 15.3582 11.5084 15.5051 11.6562 15.6562C11.6747 15.6746 11.6563 15.6927 11.6562 15.7188C11.6562 15.7448 11.6747 15.7629 11.6562 15.7812C11.653 15.789 11.632 15.8079 11.625 15.8125C11.1824 16.1293 10.6693 16.3075 10.125 16.3125C9.18965 16.3125 8.29871 15.8072 7.65625 14.875C7.06917 13.9796 6.74403 12.9141 6.71875 11.8438C6.71729 11.803 6.74442 11.7676 6.78125 11.75L7.40625 11.4688Z" fill="#000000" fill-rule="nonzero" opacity="1" stroke="none"/>
</svg>

<svg xmlns="http://www.w3.org/2000/svg" xml:space="preserve" width="24" height="24" viewBox="0 0 24 24" stroke-miterlimit="10"><path d="M10.313 4.125c-4.29 0-6.188 1.898-6.188 6.188v3.374c0 4.29 1.898 6.188 6.188 6.188h3.374c4.292 0 6.188-1.898 6.188-6.187v-3.376c0-4.289-1.896-6.187-6.187-6.187zm5.468 3.563c.038-.018.096.001.125.03.164.168.306.339.438.532.636.98.958 2.144.937 3.313a5.8 5.8 0 0 1-.937 3.28c-.643.938-1.524 1.47-2.469 1.47s-1.793-.537-2.437-1.47a5.8 5.8 0 0 1-.938-3.28c0-1.145.656-2.063 1.5-2.063s1.5.913 1.5 2.063a6.06 6.06 0 0 1-.687 2.874c-.013.024-.037.055-.063.063s-.039-.018-.062-.031c-.01-.006-.024.008-.032 0a3 3 0 0 1-.219-.281c-.077-.112-.155-.224-.218-.344a.12.12 0 0 1 0-.094 5.4 5.4 0 0 0 .437-2.187c0-.569-.278-1.188-.656-1.188s-.656.616-.656 1.188a4.97 4.97 0 0 0 .781 2.812c.472.7 1.128 1.094 1.781 1.094.654 0 1.271-.395 1.75-1.094.54-.84.8-1.814.781-2.812a4.97 4.97 0 0 0-.78-2.813 3.2 3.2 0 0 0-.532-.594q-.028-.024-.031-.062c-.003-.026.015-.042.031-.063.01-.014.015-.024.031-.031zm-8.375 3.78a.15.15 0 0 1 .094 0c.025.01.02.04.031.063.006.013.032.017.032.031-.021 1 .24 1.973.78 2.813.487.698 1.132 1.094 1.782 1.094q.53-.011.969-.313c.043-.03.094-.011.125.031.125.171.29.318.437.47.019.018 0 .036 0 .062s.019.044 0 .062a.1.1 0 0 1-.031.031 2.6 2.6 0 0 1-1.5.5c-.935 0-1.826-.505-2.469-1.437a5.8 5.8 0 0 1-.937-3.031c-.002-.041.025-.076.062-.094z"/></svg>
